images/add-button.svg

<svg id="Capa_1" enable-background="new 0 0 551.13 551.13" height="512" viewBox="0 0 551.13 551.13" width="512" xmlns="http://www.w3.org/2000/svg"><path d="m275.565 0c-151.944 0-275.565 123.621-275.565 275.565s123.621 275.565 275.565 275.565 275.565-123.621 275.565-275.565-123.621-275.565-275.565-275.565zm0 516.685c-132.955 0-241.119-108.164-241.119-241.119s108.164-241.12 241.119-241.12 241.12 108.164 241.12 241.119-108.165 241.12-241.12 241.12z"/><path d="m292.788 137.783h-34.446v120.56h-120.56v34.446h120.56v120.56h34.446v-120.56h120.56v-34.446h-120.56z"/></svg>

<svg id="add-button" xmlns="http://www.w3.org/2000/svg" width="551.13" height="551.13" viewBox="0 0 551.13 551.13">
  <path id="Path_1" data-name="Path 1" d="M275.565,0C123.621,0,0,123.621,0,275.565S123.621,551.13,275.565,551.13,551.13,427.509,551.13,275.565,427.509,0,275.565,0Zm0,516.685c-132.955,0-241.119-108.164-241.119-241.119S142.61,34.446,275.565,34.446s241.12,108.164,241.12,241.119S408.52,516.685,275.565,516.685Z" fill="red"/>
  <path id="Path_2" data-name="Path 2" d="M292.788,137.783H258.342v120.56H137.782v34.446h120.56v120.56h34.446V292.789h120.56V258.343H292.788Z" fill="red"/>
</svg>
